svg/fluentui-system-icons/ic_fluent_folder_list_20_regular.svg

<svg width="20" height="20" viewBox="0 0 20 20" fill="none" xmlns="http://www.w3.org/2000/svg">
<path d="M7.16667 3C7.43713 3 7.70151 3.0731 7.93238 3.21016L8.06667 3.3L9.667 4.5H15.5C16.7703 4.5 17.8192 5.44737 17.9789 6.67409L17.9947 6.83562L18 7V12H17V7C17 6.2203 16.4051 5.57955 15.6445 5.50687L15.5 5.5H9.617L8.15763 7.03449C7.90991 7.2946 7.57838 7.45592 7.22435 7.49219L7.07143 7.5L3 7.499V14.5C3 15.2797 3.59489 15.9204 4.35554 15.9931L4.5 16H11.0854C11.1512 16.1863 11.2528 16.3557 11.3819 16.5C11.2528 16.6443 11.1512 16.8137 11.0854 17H4.5C3.17452 17 2.08996 15.9685 2.00532 14.6644L2 14.5V5.5C2 4.17452 3.03154 3.08996 4.33562 3.00532L4.5 3H7.16667ZM7.16667 4H4.5C3.7203 4 3.07955 4.59489 3.00687 5.35554L3 5.5V6.499L7.07143 6.5C7.1809 6.5 7.28655 6.46411 7.37274 6.39902L7.4335 6.34483L8.694 5.021L7.46667 4.1C7.40176 4.05132 7.32632 4.01941 7.24701 4.0065L7.16667 4ZM12.5 13C12.2239 13 12 13.2239 12 13.5C12 13.7761 12.2239 14 12.5 14H18.5C18.7761 14 19 13.7761 19 13.5C19 13.2239 18.7761 13 18.5 13H12.5ZM12.5 15C12.2239 15 12 15.2239 12 15.5C12 15.7761 12.2239 16 12.5 16H18.5C18.7761 16 19 15.7761 19 15.5C19 15.2239 18.7761 15 18.5 15H12.5ZM12 17.5C12 17.2239 12.2239 17 12.5 17H18.5C18.7761 17 19 17.2239 19 17.5C19 17.7761 18.7761 18 18.5 18H12.5C12.2239 18 12 17.7761 12 17.5Z" fill="#212121"/>
</svg>

<svg xmlns="http://www.w3.org/2000/svg" width="20" height="20"><path d="M7.167 3c.27 0 .535.073.765.21l.135.09 1.6 1.2H15.5a2.5 2.5 0 0 1 2.479 2.174l.016.162L18 7v5h-1V7a1.5 1.5 0 0 0-1.355-1.493L15.5 5.5H9.617l-1.46 1.534a1.5 1.5 0 0 1-.933.458l-.153.008L3 7.499V14.5a1.5 1.5 0 0 0 1.356 1.493L4.5 16h6.585c.066.186.168.356.297.5-.13.144-.23.314-.297.5H4.5a2.5 2.5 0 0 1-2.495-2.336L2 14.5v-9a2.5 2.5 0 0 1 2.336-2.495L4.5 3h2.667Zm0 1H4.5a1.5 1.5 0 0 0-1.493 1.356L3 5.5v.999l4.071.001a.5.5 0 0 0 .302-.101l.06-.054L8.694 5.02 7.467 4.1a.5.5 0 0 0-.22-.093L7.167 4Zm5.333 9a.5.5 0 0 0 0 1h6a.5.5 0 0 0 0-1h-6Zm0 2a.5.5 0 0 0 0 1h6a.5.5 0 0 0 0-1h-6Zm-.5 2.5a.5.5 0 0 1 .5-.5h6a.5.5 0 0 1 0 1h-6a.5.5 0 0 1-.5-.5Z"/></svg>
